;FLAVOR:RepRap
;TIME:402
;Filament used: 0.245782m
;Layer height: 0.2
;MINX:-8.6
;MINY:-8.6
;MINZ:0.3
;MAXX:8.6
;MAXY:8.6
;MAXZ:9.9
;TARGET_MACHINE.NAME:Unknown
;Generated with Cura_SteamEngine 5.8.1
T0
M190 S60
M104 S200
M109 S200
M82 ;absolute extrusion mode
G28 ;Home
G1 Z15.0 F6000 ;Move the platform down 15mm
;Prime the extruder
G92 E0
G1 F200 E3
G92 E0
M83 ;relative extrusion mode
;LAYER_COUNT:49
;LAYER:0
M107
G0 F3600 X8.6 Y4.309 Z0.3
;TYPE:SKIRT
G1 F720 X8.591 Y5.036 E0.03627
G1 X8.533 Y5.633 E0.02992
G1 X8.387 Y6.183 E0.02839
G1 X8.157 Y6.702 E0.02832
G1 X7.848 Y7.18 E0.0284
G1 X7.467 Y7.603 E0.0284
G1 X7.026 Y7.96 E0.02831
G1 X6.532 Y8.244 E0.02843
G1 X6.001 Y8.445 E0.02833
G1 X5.507 Y8.553 E0.02523
G1 X4.76 Y8.599 E0.03734
G1 X-4.339 Y8.6 E0.45395
G1 X-5.037 Y8.591 E0.03483
G1 X-5.635 Y8.532 E0.02998
G1 X-6.185 Y8.386 E0.02839
G1 X-6.705 Y8.155 E0.02839
G1 X-7.181 Y7.847 E0.02829
G1 X-7.604 Y7.466 E0.0284
G1 X-7.961 Y7.023 E0.02838
G1 X-8.244 Y6.531 E0.02832
G1 X-8.446 Y5.999 E0.02839
G1 X-8.561 Y5.453 E0.02784
G1 X-8.598 Y5 E0.02268
G1 X-8.6 Y-4.374 E0.46767
G1 X-8.591 Y-5.039 E0.03318
G1 X-8.531 Y-5.638 E0.03003
G1 X-8.385 Y-6.186 E0.02829
G1 X-8.155 Y-6.705 E0.02832
G1 X-7.845 Y-7.183 E0.02842
G1 X-7.465 Y-7.605 E0.02833
G1 X-7.022 Y-7.962 E0.02838
G1 X-6.529 Y-8.245 E0.02836
G1 X-6.058 Y-8.429 E0.02523
G1 X-5.451 Y-8.561 E0.03099
G1 X-5.006 Y-8.598 E0.02228
G1 X4.345 Y-8.6 E0.46652
G1 X5.043 Y-8.59 E0.03483
G1 X5.64 Y-8.53 E0.02993
G1 X6.19 Y-8.384 E0.02839
G1 X6.654 Y-8.182 E0.02525
G1 X7.135 Y-7.88 E0.02834
G1 X7.608 Y-7.461 E0.03153
G1 X7.963 Y-7.019 E0.02828
G1 X8.246 Y-6.525 E0.0284
G1 X8.447 Y-5.994 E0.02833
G1 X8.562 Y-5.437 E0.02837
G1 X8.599 Y-4.76 E0.03383
G1 X8.6 Y4.309 E0.45245
G0 F3600 X8.2 Y4.304
G1 F720 X8.191 Y5.031 E0.03627
G1 X8.145 Y5.534 E0.0252
G1 X8.02 Y6.024 E0.02523
G1 X7.819 Y6.488 E0.02523
G1 X7.548 Y6.915 E0.02523
G1 X7.213 Y7.294 E0.02524
G1 X6.823 Y7.615 E0.0252
G1 X6.387 Y7.871 E0.02522
G1 X5.916 Y8.054 E0.02521
G1 X5.422 Y8.162 E0.02523
G1 X4.76 Y8.199 E0.03308
G1 X-4.334 Y8.2 E0.4537
G1 X-5.032 Y8.191 E0.03483
G1 X-5.536 Y8.144 E0.02525
G1 X-6.026 Y8.019 E0.02523
G1 X-6.49 Y7.818 E0.02523
G1 X-6.916 Y7.547 E0.02519
G1 X-7.295 Y7.212 E0.02524
G1 X-7.616 Y6.821 E0.02524
G1 X-7.871 Y6.385 E0.0252
G1 X-8.055 Y5.914 E0.02523
G1 X-8.162 Y5.42 E0.02522
G1 X-8.199 Y4.967 E0.02268
G1 X-8.2 Y-4.369 E0.46577
G1 X-8.191 Y-5.034 E0.03318
G1 X-8.144 Y-5.538 E0.02525
G1 X-8.018 Y-6.027 E0.02519
G1 X-7.817 Y-6.491 E0.02523
G1 X-7.546 Y-6.918 E0.02523
G1 X-7.211 Y-7.296 E0.0252
G1 X-6.82 Y-7.617 E0.02524
G1 X-6.383 Y-7.872 E0.02524
G1 X-5.912 Y-8.056 E0.02523
G1 X-5.418 Y-8.162 E0.02521
G1 X-4.973 Y-8.199 E0.02228
G1 X4.339 Y-8.2 E0.46458
G1 X5.037 Y-8.19 E0.03483
G1 X5.54 Y-8.143 E0.0252
G1 X6.03 Y-8.017 E0.02524
G1 X6.494 Y-7.815 E0.02525
G1 X6.92 Y-7.543 E0.02522
G1 X7.298 Y-7.208 E0.0252
G1 X7.618 Y-6.817 E0.02521
G1 X7.873 Y-6.38 E0.02524
G1 X8.056 Y-5.909 E0.02521
G1 X8.163 Y-5.415 E0.02522
G1 X8.199 Y-4.76 E0.03273
G1 X8.2 Y4.304 E0.4522
;MESH:xyz-10mm-calibration-cube.stl
G0 F3600 X5.665 Y4.304
G0 X4.58 Y4.304
G0 X4.4 Y4.4
;TYPE:WALL-INNER
G1 F720 X4.4 Y-4.4 E0.43903
G1 X-4.4 Y-4.4 E0.43903
G1 X-4.4 Y4.4 E0.43903
G1 X4.4 Y4.4 E0.43903
G0 F3600 X4.8 Y4.8
;TYPE:WALL-OUTER
G1 F720 X4.8 Y-4.8 E0.47895
G1 X-4.8 Y-4.8 E0.47895
G1 X-4.8 Y4.8 E0.47895
G1 X4.8 Y4.8 E0.47895
G0 F3600 X4.8 Y4.6
G0 X4.02 Y4.02
;TYPE:SKIN
G1 F720 X-4.02 Y4.02 E0.40112
G1 X-4.02 Y-4.02 E0.40112
G1 X4.02 Y-4.02 E0.40112
G1 X4.02 Y4.02 E0.40112
G0 F3600 X3.534 Y-3.82
G1 F720 X3.82 Y-3.534 E0.02018
G0 F3600 X3.82 Y-2.968
G1 F720 X2.968 Y-3.82 E0.06011
G0 F3600 X2.403 Y-3.82
G1 F720 X3.82 Y-2.403 E0.09998
G0 F3600 X3.82 Y-1.837
G1 F720 X1.837 Y-3.82 E0.13991
G0 F3600 X1.271 Y-3.82
G1 F720 X3.82 Y-1.271 E0.17985
G0 F3600 X3.82 Y-.706
G1 F720 X0.706 Y-3.82 E0.21971
G0 F3600 X0.14 Y-3.82
G1 F720 X3.82 Y-.14 E0.25964
G0 F3600 X3.82 Y0.426
G1 F720 X-.426 Y-3.82 E0.29958
G0 F3600 X-.991 Y-3.82
G1 F720 X3.82 Y0.991 E0.33944
G0 F3600 X3.82 Y1.557
G1 F720 X-1.557 Y-3.82 E0.37938
G0 F3600 X-2.123 Y-3.82
G1 F720 X3.82 Y2.123 E0.41931
G0 F3600 X3.82 Y2.688
G1 F720 X-2.688 Y-3.82 E0.45917
G0 F3600 X-3.254 Y-3.82
G1 F720 X3.82 Y3.254 E0.49911
G0 F3600 X3.82 Y3.82
G1 F720 X-3.82 Y-3.82 E0.53904
G0 F3600 X-3.82 Y-3.254
G1 F720 X3.254 Y3.82 E0.49911
G0 F3600 X2.688 Y3.82
G1 F720 X-3.82 Y-2.688 E0.45917
G0 F3600 X-3.82 Y-2.123
G1 F720 X2.123 Y3.82 E0.41931
G0 F3600 X1.557 Y3.82
G1 F720 X-3.82 Y-1.557 E0.37938
G0 F3600 X-3.82 Y-.991
G1 F720 X0.991 Y3.82 E0.33944
G0 F3600 X0.426 Y3.82
G1 F720 X-3.82 Y-.426 E0.29958
G0 F3600 X-3.82 Y0.14
G1 F720 X-.14 Y3.82 E0.25964
G0 F3600 X-.706 Y3.82
G1 F720 X-3.82 Y0.706 E0.21971
G0 F3600 X-3.82 Y1.271
G1 F720 X-1.271 Y3.82 E0.17985
G0 F3600 X-1.837 Y3.82
G1 F720 X-3.82 Y1.837 E0.13991
G0 F3600 X-3.82 Y2.403
G1 F720 X-2.403 Y3.82 E0.09998
G0 F3600 X-2.968 Y3.82
G1 F720 X-3.82 Y2.968 E0.06011
G0 F3600 X-3.82 Y3.534
G1 F720 X-3.534 Y3.82 E0.02018
G0 F3600 X-3.534 Y3.8
;MESH:NONMESH
G0 F600 X-3.534 Y3.8 Z0.5
G0 F3600 X4.58 Y4.304
G0 X5.665 Y4.304
G0 X8.2 Y4.304
;TIME_ELAPSED:32.910611
;LAYER:1
M106 S255
;TYPE:SKIRT
G1 F720 X8.191 Y5.031 E0.02418
G1 X8.145 Y5.534 E0.0168
G1 X8.02 Y6.024 E0.01682
G1 X7.819 Y6.488 E0.01682
G1 X7.548 Y6.915 E0.01682
G1 X7.213 Y7.294 E0.01682
G1 X6.823 Y7.615 E0.0168
G1 X6.387 Y7.871 E0.01682
G1 X5.916 Y8.054 E0.01681
G1 X5.422 Y8.162 E0.01682
G1 X4.76 Y8.199 E0.02205
G1 X-4.334 Y8.2 E0.30247
G1 X-5.032 Y8.191 E0.02322
G1 X-5.536 Y8.144 E0.01684
G1 X-6.026 Y8.019 E0.01682
G1 X-6.49 Y7.818 E0.01682
G1 X-6.916 Y7.547 E0.01679
G1 X-7.295 Y7.212 E0.01682
G1 X-7.616 Y6.821 E0.01683
G1 X-7.871 Y6.385 E0.0168
G1 X-8.055 Y5.914 E0.01682
G1 X-8.162 Y5.42 E0.01681
G1 X-8.199 Y4.967 E0.01512
G1 X-8.2 Y-4.369 E0.31052
G1 X-8.191 Y-5.034 E0.02212
G1 X-8.144 Y-5.538 E0.01684
G1 X-8.018 Y-6.027 E0.0168
G1 X-7.817 Y-6.491 E0.01682
G1 X-7.546 Y-6.918 E0.01682
G1 X-7.211 Y-7.296 E0.0168
G1 X-6.82 Y-7.617 E0.01683
G1 X-6.383 Y-7.872 E0.01683
G1 X-5.912 Y-8.056 E0.01682
G1 X-5.418 Y-8.162 E0.0168
G1 X-4.973 Y-8.199 E0.01485
G1 X4.339 Y-8.2 E0.30972
G1 X5.037 Y-8.19 E0.02322
G1 X5.54 Y-8.143 E0.0168
G1 X6.03 Y-8.017 E0.01683
G1 X6.494 Y-7.815 E0.01683
G1 X6.92 Y-7.543 E0.01681
G1 X7.298 Y-7.208 E0.0168
G1 X7.618 Y-6.817 E0.0168
G1 X7.873 Y-6.38 E0.01683
G1 X8.056 Y-5.909 E0.01681
G1 X8.163 Y-5.415 E0.01681
G1 X8.199 Y-4.76 E0.02182
G1 X8.2 Y4.304 E0.30147
;MESH:xyz-10mm-calibration-cube.stl
G0 F5400 X5.665 Y4.304
G0 X4.58 Y4.304
G0 X4.4 Y4.4
;TYPE:WALL-INNER
G1 F1320 X4.4 Y-4.4 E0.29269
G1 X-4.4 Y-4.4 E0.29269
G1 X-4.4 Y4.4 E0.29269
G1 X4.4 Y4.4 E0.29269
G0 F5400 X4.8 Y4.8
;TYPE:WALL-OUTER
G1 F840 X4.8 Y-4.8 E0.3193
G1 X-4.8 Y-4.8 E0.3193
G1 X-4.8 Y4.8 E0.3193
G1 X4.8 Y4.8 E0.3193
G0 F5400 X4.8 Y4.6
G0 X4.02 Y4.02
;TYPE:SKIN
G1 F720 X-4.02 Y4.02 E0.26741
G1 X-4.02 Y-4.02 E0.26741
G1 X4.02 Y-4.02 E0.26741
G1 X4.02 Y4.02 E0.26741
G0 F5400 X3.534 Y3.82
G1 F720 X3.82 Y3.534 E0.01345
G0 F5400 X3.82 Y2.968
G1 F720 X2.968 Y3.82 E0.04008
G0 F5400 X2.403 Y3.82
G1 F720 X3.82 Y2.403 E0.06665
G0 F5400 X3.82 Y1.837
G1 F720 X1.837 Y3.82 E0.09327
G0 F5400 X1.271 Y3.82
G1 F720 X3.82 Y1.271 E0.1199
G0 F5400 X3.82 Y0.706
G1 F720 X0.706 Y3.82 E0.14647
G0 F5400 X0.14 Y3.82
G1 F720 X3.82 Y0.14 E0.1731
G0 F5400 X3.82 Y-.426
G1 F720 X-.426 Y3.82 E0.19972
G0 F5400 X-.991 Y3.82
G1 F720 X3.82 Y-.991 E0.22629
G0 F5400 X3.82 Y-1.557
G1 F720 X-1.557 Y3.82 E0.25292
G0 F5400 X-2.123 Y3.82
G1 F720 X3.82 Y-2.123 E0.27954
G0 F5400 X3.82 Y-2.688
G1 F720 X-2.688 Y3.82 E0.30612
G0 F5400 X-3.254 Y3.82
G1 F720 X3.82 Y-3.254 E0.33274
G0 F5400 X3.82 Y-3.82
G1 F720 X-3.82 Y3.82 E0.35936
G0 F5400 X-3.82 Y3.254
G1 F720 X3.254 Y-3.82 E0.33274
G0 F5400 X2.688 Y-3.82
G1 F720 X-3.82 Y2.688 E0.30612
G0 F5400 X-3.82 Y2.123
G1 F720 X2.123 Y-3.82 E0.27954
G0 F5400 X1.557 Y-3.82
G1 F720 X-3.82 Y1.557 E0.25292
G0 F5400 X-3.82 Y0.991
G1 F720 X0.991 Y-3.82 E0.22629
G0 F5400 X0.426 Y-3.82
G1 F720 X-3.82 Y0.426 E0.19972
G0 F5400 X-3.82 Y-.14
G1 F720 X-.14 Y-3.82 E0.1731
G0 F5400 X-.706 Y-3.82
G1 F720 X-3.82 Y-.706 E0.14647
G0 F5400 X-3.82 Y-1.271
G1 F720 X-1.271 Y-3.82 E0.1199
G0 F5400 X-1.837 Y-3.82
G1 F720 X-3.82 Y-1.837 E0.09327
G0 F5400 X-3.82 Y-2.403
G1 F720 X-2.403 Y-3.82 E0.06665
G0 F5400 X-2.968 Y-3.82
G1 F720 X-3.82 Y-2.968 E0.04008
G0 F5400 X-3.82 Y-3.534
G1 F720 X-3.534 Y-3.82 E0.01345
G0 F5400 X-3.534 Y-3.8
;MESH:NONMESH
G0 F600 X-3.534 Y-3.8 Z0.7
G0 F5400 X4.58 Y4.304
G0 X5.665 Y4.304
G0 X8.2 Y4.304
;TIME_ELAPSED:58.074786
;LAYER:2
;TYPE:SKIRT
G1 F720 X8.191 Y5.031 E0.02418
G1 X8.145 Y5.534 E0.0168
G1 X8.02 Y6.024 E0.01682
G1 X7.819 Y6.488 E0.01682
G1 X7.548 Y6.915 E0.01682
G1 X7.213 Y7.294 E0.01682
G1 X6.823 Y7.615 E0.0168
G1 X6.387 Y7.871 E0.01682
G1 X5.916 Y8.054 E0.01681
G1 X5.422 Y8.162 E0.01682
G1 X4.76 Y8.199 E0.02205
G1 X-4.334 Y8.2 E0.30247
G1 X-5.032 Y8.191 E0.02322
G1 X-5.536 Y8.144 E0.01684
G1 X-6.026 Y8.019 E0.01682
G1 X-6.49 Y7.818 E0.01682
G1 X-6.916 Y7.547 E0.01679
G1 X-7.295 Y7.212 E0.01682
G1 X-7.616 Y6.821 E0.01683
G1 X-7.871 Y6.385 E0.0168
G1 X-8.055 Y5.914 E0.01682
G1 X-8.162 Y5.42 E0.01681
G1 X-8.199 Y4.967 E0.01512
G1 X-8.2 Y-4.369 E0.31052
G1 X-8.191 Y-5.034 E0.02212
G1 X-8.144 Y-5.538 E0.01684
G1 X-8.018 Y-6.027 E0.0168
G1 X-7.817 Y-6.491 E0.01682
G1 X-7.546 Y-6.918 E0.01682
G1 X-7.211 Y-7.296 E0.0168
G1 X-6.82 Y-7.617 E0.01683
G1 X-6.383 Y-7.872 E0.01683
G1 X-5.912 Y-8.056 E0.01682
G1 X-5.418 Y-8.162 E0.0168
G1 X-4.973 Y-8.199 E0.01485
G1 X4.339 Y-8.2 E0.30972
G1 X5.037 Y-8.19 E0.02322
G1 X5.54 Y-8.143 E0.0168
G1 X6.03 Y-8.017 E0.01683
G1 X6.494 Y-7.815 E0.01683
G1 X6.92 Y-7.543 E0.01681
G1 X7.298 Y-7.208 E0.0168
G1 X7.618 Y-6.817 E0.0168
G1 X7.873 Y-6.38 E0.01683
G1 X8.056 Y-5.909 E0.01681
G1 X8.163 Y-5.415 E0.01681
G1 X8.199 Y-4.76 E0.02182
G1 X8.2 Y4.304 E0.30147
;MESH:xyz-10mm-calibration-cube.stl
G0 F7200 X5.665 Y4.304
G0 X4.58 Y4.304
G0 X4.4 Y4.4
;TYPE:WALL-INNER
G1 F1920 X4.4 Y-4.4 E0.29269
G1 X-4.4 Y-4.4 E0.29269
G1 X-4.4 Y4.4 E0.29269
G1 X4.4 Y4.4 E0.29269
G0 F7200 X4.8 Y4.8
;TYPE:WALL-OUTER
G1 F960 X4.8 Y-4.8 E0.3193
G1 X-4.8 Y-4.8 E0.3193
G1 X-4.8 Y4.8 E0.3193
G1 X4.8 Y4.8 E0.3193
G0 F7200 X4.8 Y4.6
G0 X4.02 Y4.02
;TYPE:SKIN
G1 F720 X-4.02 Y4.02 E0.26741
G1 X-4.02 Y-4.02 E0.26741
G1 X4.02 Y-4.02 E0.26741
G1 X4.02 Y4.02 E0.26741
G0 F7200 X3.534 Y-3.82
G1 F720 X3.82 Y-3.534 E0.01345
G0 F7200 X3.82 Y-2.968
G1 F720 X2.968 Y-3.82 E0.04008
G0 F7200 X2.403 Y-3.82
G1 F720 X3.82 Y-2.403 E0.06665
G0 F7200 X3.82 Y-1.837
G1 F720 X1.837 Y-3.82 E0.09327
G0 F7200 X1.271 Y-3.82
G1 F720 X3.82 Y-1.271 E0.1199
G0 F7200 X3.82 Y-.706
G1 F720 X0.706 Y-3.82 E0.14647
G0 F7200 X0.14 Y-3.82
G1 F720 X3.82 Y-.14 E0.1731
G0 F7200 X3.82 Y0.426
G1 F720 X-.426 Y-3.82 E0.19972
G0 F7200 X-.991 Y-3.82
G1 F720 X3.82 Y0.991 E0.22629
G0 F7200 X3.82 Y1.557
G1 F720 X-1.557 Y-3.82 E0.25292
G0 F7200 X-2.123 Y-3.82
G1 F720 X3.82 Y2.123 E0.27954
G0 F7200 X3.82 Y2.688
G1 F720 X-2.688 Y-3.82 E0.30612
G0 F7200 X-3.254 Y-3.82
G1 F720 X3.82 Y3.254 E0.33274
G0 F7200 X3.82 Y3.82
G1 F720 X-3.82 Y-3.82 E0.35936
G0 F7200 X-3.82 Y-3.254
G1 F720 X3.254 Y3.82 E0.33274
G0 F7200 X2.688 Y3.82
G1 F720 X-3.82 Y-2.688 E0.30612
G0 F7200 X-3.82 Y-2.123
G1 F720 X2.123 Y3.82 E0.27954
G0 F7200 X1.557 Y3.82
G1 F720 X-3.82 Y-1.557 E0.25292
G0 F7200 X-3.82 Y-.991
G1 F720 X0.991 Y3.82 E0.22629
G0 F7200 X0.426 Y3.82
G1 F720 X-3.82 Y-.426 E0.19972
G0 F7200 X-3.82 Y0.14
G1 F720 X-.14 Y3.82 E0.1731
G0 F7200 X-.706 Y3.82
G1 F720 X-3.82 Y0.706 E0.14647
G0 F7200 X-3.82 Y1.271
G1 F720 X-1.271 Y3.82 E0.1199
G0 F7200 X-1.837 Y3.82
G1 F720 X-3.82 Y1.837 E0.09327
G0 F7200 X-3.82 Y2.403
G1 F720 X-2.403 Y3.82 E0.06665
G0 F7200 X-2.968 Y3.82
G1 F720 X-3.82 Y2.968 E0.04008
G0 F7200 X-3.82 Y3.534
G1 F720 X-3.534 Y3.82 E0.01345
G0 F7200 X-3.534 Y3.8
;MESH:NONMESH
G0 F600 X-3.534 Y3.8 Z0.9
G0 F7200 X-4.1 Y-.534
G0 X-4.24 Y-.534
;TIME_ELAPSED:82.347894
;LAYER:3
;TYPE:FILL
;MESH:xyz-10mm-calibration-cube.stl
G1 F2400 X-3.856 Y-.481 E0.01289
G1 X-3.374 Y-.622 E0.0167
G1 X-2.892 Y-1.029 E0.02098
G1 X-2.41 Y-1.381 E0.01985
G1 X-1.928 Y-1.448 E0.01619
G1 X-1.446 Y-1.307 E0.0167
G1 X-.964 Y-.9 E0.02098
G1 X-.482 Y-.548 E0.01985
G1 X0.00 Y-.481 E0.01619
G1 X0.482 Y-.622 E0.0167
G1 X0.964 Y-1.029 E0.02098
G1 X1.446 Y-1.381 E0.01985
G1 X1.928 Y-1.448 E0.01619
G1 X2.41 Y-1.307 E0.0167
G1 X2.892 Y-.9 E0.02098
G1 X3.374 Y-.548 E0.01985
G1 X3.856 Y-.481 E0.01619
G1 X4.24 Y-.593 E0.0133
G0 F7200 X4.1 Y-.593
G0 X4.1 Y-2.462
G0 X4.24 Y-2.462
G1 F2400 X3.856 Y-2.409 E0.01289
G1 X3.374 Y-2.55 E0.0167
G1 X2.892 Y-2.957 E0.02098
G1 X2.41 Y-3.309 E0.01985
G1 X1.928 Y-3.376 E0.01619
G1 X1.446 Y-3.235 E0.0167
G1 X0.964 Y-2.828 E0.02098
G1 X0.482 Y-2.476 E0.01985
G1 X0.00 Y-2.409 E0.01619
G1 X-.482 Y-2.55 E0.0167
G1 X-.964 Y-2.957 E0.02098
G1 X-1.446 Y-3.309 E0.01985
G1 X-1.928 Y-3.376 E0.01619
G1 X-2.41 Y-3.235 E0.0167
G1 X-2.892 Y-2.828 E0.02098
G1 X-3.374 Y-2.476 E0.01985
G1 X-3.856 Y-2.409 E0.01619
G1 X-4.24 Y-2.521 E0.0133
G0 F7200 X-4.1 Y-2.521
G0 X-4.1 Y1.335
G0 X-4.24 Y1.335
G1 F2400 X-3.856 Y1.447 E0.0133
G1 X-3.374 Y1.38 E0.01619
G1 X-2.892 Y1.028 E0.01985
G1 X-2.41 Y0.621 E0.02098
G1 X-1.928 Y0.48 E0.0167
G1 X-1.446 Y0.547 E0.01619
G1 X-.964 Y0.899 E0.01985
G1 X-.482 Y1.306 E0.02098
G1 X0.00 Y1.447 E0.0167
G1 X0.482 Y1.38 E0.01619
G1 X0.964 Y1.028 E0.01985
G1 X1.446 Y0.621 E0.02098
G1 X1.928 Y0.48 E0.0167
G1 X2.41 Y0.547 E0.01619
G1 X2.892 Y0.899 E0.01985
G1 X3.374 Y1.306 E0.02098
G1 X3.856 Y1.447 E0.0167
G1 X4.24 Y1.394 E0.01289
G0 F7200 X4.1 Y1.394
G0 X4.1 Y3.263
G0 X4.24 Y3.263
G1 F2400 X3.856 Y3.375 E0.0133
G1 X3.374 Y3.308 E0.01619
G1 X2.892 Y2.956 E0.01985
G1 X2.41 Y2.549 E0.02098
G1 X1.928 Y2.408 E0.0167
G1 X1.446 Y2.475 E0.01619
G1 X0.964 Y2.827 E0.01985
G1 X0.482 Y3.234 E0.02098
G1 X0.00 Y3.375 E0.0167
G1 X-.482 Y3.308 E0.01619
G1 X-.964 Y2.956 E0.01985
G1 X-1.446 Y2.549 E0.02098
G1 X-1.928 Y2.408 E0.0167
G1 X-2.41 Y2.475 E0.01619
G1 X-2.892 Y2.827 E0.01985
G1 X-3.374 Y3.234 E0.02098
G1 X-3.856 Y3.375 E0.0167
G1 X-4.24 Y3.322 E0.01289
G0 F7200 X-4.1 Y3.322
G0 X4.13 Y4.13
G0 X4.4 Y4.4
;TYPE:WALL-INNER
G1 F1920 X4.4 Y-4.4 E0.29269
G1 X-4.4 Y-4.4 E0.29269
G1 X-4.4 Y4.4 E0.29269
G1 X4.4 Y4.4 E0.29269
G0 F7200 X4.8 Y4.8
;TYPE:WALL-OUTER
G1 F960 X4.8 Y-4.8 E0.3193
G1 X-4.8 Y-4.8 E0.3193
G1 X-4.8 Y4.8 E0.3193
G1 X4.8 Y4.8 E0.3193
G0 F7200 X4.8 Y4.6
G0 X3.8 Y3.918
;MESH:NONMESH
G0 F600 X3.8 Y3.918 Z1.1
G0 F7200 X4.1 Y-.495
G0 X4.24 Y-.495
;TIME_ELAPSED:87.313042
;LAYER:4
;TYPE:FILL
;MESH:xyz-10mm-calibration-cube.stl
G1 F2400 X3.856 Y-.475 E0.01279
G1 X3.374 Y-.659 E0.01716
G1 X2.892 Y-1.104 E0.02182
G1 X2.41 Y-1.429 E0.01934
G1 X1.928 Y-1.454 E0.01605
G1 X1.446 Y-1.27 E0.01716
G1 X0.964 Y-.825 E0.02182
G1 X0.482 Y-.5 E0.01934
G1 X0.00 Y-.475 E0.01605
G1 X-.482 Y-.659 E0.01716
G1 X-.964 Y-1.104 E0.02182
G1 X-1.446 Y-1.429 E0.01934
G1 X-1.928 Y-1.454 E0.01605
G1 X-2.41 Y-1.27 E0.01716
G1 X-2.892 Y-.825 E0.02182
G1 X-3.374 Y-.5 E0.01934
G1 X-3.856 Y-.475 E0.01605
G1 X-4.24 Y-.622 E0.01368
G0 F7200 X-4.1 Y-.622
G0 X-4.1 Y-2.423
G0 X-4.24 Y-2.423
G1 F2400 X-3.856 Y-2.403 E0.01279
G1 X-3.374 Y-2.587 E0.01716
G1 X-2.892 Y-3.032 E0.02182
G1 X-2.41 Y-3.357 E0.01934
G1 X-1.928 Y-3.382 E0.01605
G1 X-1.446 Y-3.198 E0.01716
G1 X-.964 Y-2.753 E0.02182
G1 X-.482 Y-2.428 E0.01934
G1 X0.00 Y-2.403 E0.01605
G1 X0.482 Y-2.587 E0.01716
G1 X0.964 Y-3.032 E0.02182
G1 X1.446 Y-3.357 E0.01934
G1 X1.928 Y-3.382 E0.01605
G1 X2.41 Y-3.198 E0.01716
G1 X2.892 Y-2.753 E0.02182
G1 X3.374 Y-2.428 E0.01934
G1 X3.856 Y-2.403 E0.01605
G1 X4.24 Y-2.55 E0.01368
G0 F7200 X4.1 Y-2.55
G0 X4.1 Y1.306
G0 X4.24 Y1.306
G1 F2400 X3.856 Y1.453 E0.01368
G1 X3.374 Y1.428 E0.01605
G1 X2.892 Y1.103 E0.01934
G1 X2.41 Y0.658 E0.02182
G1 X1.928 Y0.474 E0.01716
G1 X1.446 Y0.499 E0.01605
G1 X0.964 Y0.824 E0.01934
G1 X0.482 Y1.269 E0.02182
G1 X0.00 Y1.453 E0.01716
G1 X-.482 Y1.428 E0.01605
G1 X-.964 Y1.103 E0.01934
G1 X-1.446 Y0.658 E0.02182
G1 X-1.928 Y0.474 E0.01716
G1 X-2.41 Y0.499 E0.01605
G1 X-2.892 Y0.824 E0.01934
G1 X-3.374 Y1.269 E0.02182
G1 X-3.856 Y1.453 E0.01716
G1 X-4.24 Y1.433 E0.01279
G0 F7200 X-4.1 Y1.433
