;FLAVOR:RepRap
;TIME:2595
;Filament used: 1.4899m
;Layer height: 0.2
;MINX:-24.674
;MINY:-24.714
;MINZ:0.3
;MAXX:24.671
;MAXY:24.709
;MAXZ:6.3
;TARGET_MACHINE.NAME:Unknown
;Generated with Cura_SteamEngine 5.8.1
T0
M190 S60
M104 S200
M109 S200
M82 ;absolute extrusion mode
G28 ;Home
G1 Z15.0 F6000 ;Move the platform down 15mm
;Prime the extruder
G92 E0
G1 F200 E3
G92 E0
M83 ;relative extrusion mode
;LAYER_COUNT:31
;LAYER:0
M107
G0 F3600 X-3.946 Y-24.304 Z0.3
;TYPE:SKIRT
G1 F720 X-3.259 Y-24.417 E0.03474
G1 X-.931 Y-24.66 E0.11678
G1 X0.148 Y-24.714 E0.0539
G1 X1.491 Y-24.612 E0.0672
G1 X3.755 Y-24.34 E0.11376
G1 X4.613 Y-24.205 E0.04333
G1 X5.181 Y-24.081 E0.02901
G1 X6.646 Y-23.721 E0.07526
G1 X7.931 Y-23.313 E0.06726
G1 X8.621 Y-23.07 E0.0365
G1 X9.598 Y-22.701 E0.0521
G1 X11.665 Y-21.716 E0.11423
G1 X13.199 Y-20.8 E0.08914
G1 X13.866 Y-20.384 E0.03922
G1 X15.283 Y-19.327 E0.0882
G1 X15.82 Y-18.909 E0.03395
G1 X16.413 Y-18.385 E0.03948
G1 X17.621 Y-17.243 E0.08294
G1 X18.12 Y-16.713 E0.03632
G1 X18.833 Y-15.898 E0.05402
G1 X19.486 Y-15.121 E0.05064
G1 X20.38 Y-13.861 E0.07708
G1 X20.781 Y-13.278 E0.0353
G1 X21.091 Y-12.773 E0.02956
G1 X21.709 Y-11.677 E0.06277
G1 X22.06 Y-11.033 E0.03659
G1 X22.283 Y-10.571 E0.02559
G1 X22.81 Y-9.364 E0.06571
G1 X23.162 Y-8.502 E0.04645
G1 X23.345 Y-7.952 E0.02892
G1 X23.892 Y-6.18 E0.09252
G1 X24.052 Y-5.471 E0.03626
G1 X24.407 Y-3.68 E0.09109
G1 X24.592 Y-1.92 E0.08829
G1 X24.671 Y-.937 E0.0492
G1 X24.665 Y0.61 E0.07718
G1 X24.642 Y1.572 E0.04801
G1 X24.485 Y3.072 E0.07524
G1 X24.343 Y4.188 E0.05613
G1 X23.866 Y6.371 E0.11148
G1 X23.593 Y7.261 E0.04644
G1 X23.148 Y8.627 E0.07168
G1 X22.712 Y9.676 E0.05668
G1 X22.023 Y11.231 E0.08485
G1 X21.389 Y12.546 E0.07283
G1 X20.91 Y13.251 E0.04252
G1 X19.358 Y15.373 E0.13116
G1 X18.828 Y15.994 E0.04073
G1 X17.767 Y17.186 E0.07961
G1 X17.363 Y17.591 E0.02854
G1 X16.402 Y18.477 E0.06521
G1 X15.705 Y19.089 E0.04628
G1 X15.299 Y19.406 E0.0257
G1 X13.882 Y20.449 E0.08778
G1 X13.361 Y20.791 E0.03109
G1 X12.262 Y21.448 E0.06388
G1 X11.407 Y21.936 E0.04912
G1 X10.046 Y22.572 E0.07495
G1 X9.032 Y23.019 E0.05529
G1 X7.58 Y23.52 E0.07663
G1 X6.676 Y23.812 E0.0474
G1 X5.178 Y24.162 E0.07675
G1 X4.485 Y24.312 E0.03537
G1 X3.949 Y24.4 E0.0271
G1 X2.671 Y24.563 E0.06428
G1 X1.97 Y24.642 E0.03519
G1 X1.341 Y24.678 E0.03143
G1 X0.044 Y24.705 E0.06472
G1 X-.642 Y24.709 E0.03423
G1 X-1.2 Y24.685 E0.02786
G1 X-2.505 Y24.579 E0.06532
G1 X-3.339 Y24.498 E0.0418
G1 X-4.909 Y24.213 E0.07961
G1 X-5.64 Y24.066 E0.0372
G1 X-6.215 Y23.92 E0.0296
G1 X-7.371 Y23.579 E0.06013
G1 X-8.396 Y23.25 E0.05371
G1 X-9.735 Y22.704 E0.07214
G1 X-10.671 Y22.298 E0.0509
G1 X-12.01 Y21.583 E0.07573
G1 X-12.893 Y21.088 E0.0505
G1 X-14.186 Y20.218 E0.07775
G1 X-14.998 Y19.644 E0.04961
G1 X-16.219 Y18.624 E0.07937
G1 X-16.851 Y18.072 E0.04186
G1 X-17.263 Y17.668 E0.02879
G1 X-18.552 Y16.322 E0.09298
G1 X-19.043 Y15.722 E0.03868
G1 X-19.624 Y14.982 E0.04694
G1 X-20.648 Y13.642 E0.08414
G1 X-21.12 Y12.998 E0.03983
G1 X-21.673 Y12.067 E0.05402
G1 X-22.616 Y10.161 E0.10609
G1 X-22.788 Y9.741 E0.02264
G1 X-23.574 Y7.35 E0.12557
G1 X-23.978 Y5.801 E0.07987
G1 X-24.19 Y4.898 E0.04628
G1 X-24.288 Y4.317 E0.0294
G1 X-24.565 Y2.416 E0.09584
G1 X-24.646 Y0.77 E0.08222
G1 X-24.674 Y-0.071 E0.04198
G1 X-24.593 Y-1.739 E0.08331
G1 X-24.508 Y-2.847 E0.05544
G1 X-24.137 Y-5.104 E0.11411
G1 X-23.699 Y-6.771 E0.08599
G1 X-23.461 Y-7.592 E0.04265
G1 X-23.282 Y-8.1 E0.02687
G1 X-22.659 Y-9.719 E0.08655
G1 X-22.419 Y-10.249 E0.02903
G1 X-21.806 Y-11.468 E0.06807
G1 X-21.489 Y-12.077 E0.03425
G1 X-21.229 Y-12.522 E0.02571
G1 X-20.514 Y-13.641 E0.06625
G1 X-19.981 Y-14.432 E0.04759
G1 X-19.633 Y-14.885 E0.0285
G1 X-19.041 Y-15.629 E0.04744
G1 X-18.368 Y-16.441 E0.05262
G1 X-17.238 Y-17.593 E0.08051
G1 X-16.77 Y-18.056 E0.03284
G1 X-16.346 Y-18.435 E0.02837
G1 X-15.376 Y-19.239 E0.06286
G1 X-14.827 Y-19.68 E0.03513
G1 X-14.382 Y-20.002 E0.0274
G1 X-12.699 Y-21.12 E0.1008
G1 X-12.097 Y-21.452 E0.0343
G1 X-10.522 Y-22.275 E0.08866
G1 X-9.983 Y-22.518 E0.0295
G1 X-8.76 Y-23.013 E0.06582
G1 X-7.782 Y-23.383 E0.05217
G1 X-5.665 Y-23.976 E0.10968
G1 X-5.157 Y-24.087 E0.02594
G1 X-3.946 Y-24.304 E0.06138
;MESH:nano_55um_on_10%.stl
G0 F3600 X-4.078 Y-21.706
G0 X-3.894 Y-20.639
G0 X-2.861 Y-4.687
G0 X-3.317 Y-3.622
G0 X-5.034 Y-2.348
G0 X-4.997 Y-2.642
;TYPE:WALL-INNER
G1 F720 X-5.567 Y-2.728 E0.02876
G1 X-6.073 Y-2.909 E0.02681
G1 X-6.606 Y-3.313 E0.03337
G1 X-6.968 Y-3.763 E0.02881
G1 X-7.203 Y-4.314 E0.02989
G1 X-7.308 Y-4.923 E0.03083
G1 X-7.23 Y-5.54 E0.03103
G1 X-6.984 Y-6.145 E0.03258
G1 X-6.609 Y-6.577 E0.02854
G1 X-6.019 Y-7.038 E0.03736
G1 X-5.296 Y-7.243 E0.03749
G1 X-4.827 Y-7.256 E0.02341
G1 X-4.213 Y-7.131 E0.03126
G1 X-3.721 Y-6.887 E0.0274
G1 X-3.273 Y-6.49 E0.02986
G1 X-2.922 Y-6.009 E0.02971
G1 X-2.701 Y-5.208 E0.04146
G1 X-2.7 Y-4.646 E0.02804
G1 X-2.868 Y-4.032 E0.03176
G1 X-3.191 Y-3.523 E0.03008
G1 X-3.695 Y-3.054 E0.03435
G1 X-4.125 Y-2.824 E0.02433
G1 X-4.826 Y-2.651 E0.03602
G1 X-4.997 Y-2.642 E0.00854
G0 F3600 X-5.034 Y-2.348
G0 X4.925 Y-2.347
G0 X4.977 Y-2.637
G1 F720 X4.274 Y-2.77 E0.03569
G1 X3.805 Y-2.98 E0.02564
G1 X3.369 Y-3.35 E0.02853
G1 X2.898 Y-3.96 E0.03845
G1 X2.707 Y-4.788 E0.04239
G1 X2.729 Y-5.329 E0.02701
G1 X2.898 Y-5.94 E0.03163
G1 X3.279 Y-6.476 E0.03281
G1 X3.746 Y-6.904 E0.0316
G1 X4.331 Y-7.159 E0.03184
G1 X4.818 Y-7.245 E0.02467
G1 X5.238 Y-7.252 E0.02096
G1 X5.837 Y-7.115 E0.03066
G1 X6.5 Y-6.716 E0.03861
G1 X6.925 Y-6.234 E0.03206
G1 X7.174 Y-5.758 E0.0268
G1 X7.313 Y-5.089 E0.03409
G1 X7.265 Y-4.499 E0.02953
G1 X7.07 Y-3.898 E0.03152
G1 X6.582 Y-3.284 E0.03913
G1 X6.164 Y-2.955 E0.02654
G1 X5.604 Y-2.722 E0.03026
G1 X4.977 Y-2.637 E0.03157
G0 F3600 X4.925 Y-2.347
G0 X2.666 Y4.002
G0 X2.476 Y5.343
G0 X2.688 Y6.151
G0 X3.184 Y6.809
G0 X4.085 Y7.398
G0 X5.014 Y7.66
G0 X5.054 Y7.363
G1 F720 X4.42 Y7.273 E0.03195
G1 X3.839 Y7.043 E0.03117
G1 X3.35 Y6.627 E0.03203
G1 X2.904 Y6.041 E0.03674
G1 X2.715 Y5.309 E0.03772
G1 X2.733 Y4.627 E0.03404
G1 X2.9 Y4.081 E0.02849
G1 X3.256 Y3.549 E0.03194
G1 X3.713 Y3.124 E0.03114
G1 X4.219 Y2.874 E0.02816
G1 X4.735 Y2.752 E0.02645
G1 X5.156 Y2.73 E0.02103
G1 X5.765 Y2.858 E0.03105
G1 X6.303 Y3.135 E0.03019
G1 X6.774 Y3.578 E0.03226
G1 X7.106 Y4.063 E0.02932
G1 X7.318 Y4.924 E0.04424
G1 X7.276 Y5.452 E0.02643
G1 X7.058 Y6.113 E0.03472
G1 X6.731 Y6.559 E0.02759
G1 X6.288 Y6.971 E0.03018
G1 X5.754 Y7.227 E0.02954
G1 X5.054 Y7.363 E0.03558
G0 F3600 X5.014 Y7.66
G0 X-4.716 Y7.642
G0 X-4.784 Y7.345
G1 F720 X-5.292 Y7.329 E0.02536
G1 X-6.031 Y7.099 E0.03861
G1 X-6.516 Y6.76 E0.02952
G1 X-6.932 Y6.312 E0.0305
G1 X-7.186 Y5.746 E0.03095
G1 X-7.31 Y5.07 E0.03429
G1 X-7.23 Y4.458 E0.03079
G1 X-7.002 Y3.905 E0.02984
G1 X-6.649 Y3.437 E0.02925
G1 X-6.163 Y3.05 E0.03099
G1 X-5.843 Y2.894 E0.01776
G1 X-4.933 Y2.718 E0.04624
G1 X-4.211 Y2.863 E0.03674
G1 X-3.718 Y3.114 E0.0276
G1 X-3.2 Y3.581 E0.0348
G1 X-2.85 Y4.16 E0.03375
G1 X-2.685 Y4.808 E0.03336
G1 X-2.709 Y5.395 E0.02931
G1 X-2.882 Y5.994 E0.03111
G1 X-3.124 Y6.395 E0.02337
G1 X-3.689 Y6.95 E0.03951
G1 X-4.178 Y7.203 E0.02747
G1 X-4.784 Y7.345 E0.03105
G0 F3600 X-4.716 Y7.642
G0 X-15.513 Y6.053
G0 X-16.934 Y6.213
G0 X-17.964 Y6.783
G0 X-18.793 Y7.823
G0 X-19.082 Y8.608
G0 X-18.175 Y9.627
G0 X-17.501 Y10.125
G1 F586.6 X-16.984 Y9.966 E0.03312
G1 F590.2 X-16.341 Y9.821 E0.04012
G1 F600 X-16.255 Y9.822 E0.00515
G1 F583 X-16.028 Y9.636 E0.01808
G1 F531.4 X-15.745 Y9.476 E0.02198
G1 F499.1 X-15.66 Y9.371 E0.00972
G1 X-15.596 Y9.108 E0.01948
G1 X-15.918 Y8.904 E0.02743
G1 X-16.128 Y9.023 E0.01737
G1 F545.5 X-16.49 Y9.383 E0.03362
G1 F620.7 X-16.692 Y9.457 E0.01245
G1 F610.2 X-17.042 Y9.463 E0.02061
G1 F592.6 X-17.743 Y9.694 E0.04474
G1 F657.5 X-17.969 Y9.692 E0.01235
G1 F720 X-18.436 Y9.447 E0.02631
G1 X-18.502 Y9.334 E0.00653
G1 X-18.734 Y9.134 E0.01528
G1 X-18.624 Y9.542 E0.02108
G1 X-18.326 Y10.281 E0.03975
G1 X-17.863 Y11.035 E0.04414
G1 X-17.76 Y10.493 E0.02752
G1 F650.1 X-17.501 Y10.125 E0.02486
G0 F3600 X-17.637 Y9.879
G0 X-19.082 Y8.608
G0 X-18.793 Y7.823
G0 X-17.964 Y6.783
G0 X-16.934 Y6.213
G0 X-15.513 Y6.053
G0 X12.759 Y9.082
G0 X13.011 Y7.957
G0 X13.693 Y6.975
G0 X14.665 Y6.308
G0 X16.056 Y7.134
G0 X15.692 Y8.406
G0 X15.914 Y8.614
G1 F507.9 X16.112 Y8.158 E0.03516
G0 F3600 X15.929 Y8.999
G0 X16.462 Y9.344
G1 F556 X16.18 Y9.078 E0.02505
G1 F480 X15.966 Y8.763 E0.0285
G1 F450 X15.914 Y8.614 E0.0126
G1 X15.875 Y8.767 E0.0126
G1 F480 X15.656 Y9.164 E0.03393
G1 F498.3 X15.649 Y9.29 E0.0091
G1 X15.701 Y9.413 E0.00963
G1 F556 X16.239 Y9.748 E0.04095
G1 F590.2 X16.589 Y9.841 E0.02204
G1 F503.5 X17.541 Y10.466 E0.08125
G1 F460.1 X17.626 Y10.62 E0.01373
G1 X17.677 Y10.885 E0.02107
G1 X17.64 Y11.077 E0.01527
G1 X17.96 Y10.645 E0.04198
G1 X18.386 Y9.807 E0.0734
G1 F484 X17.795 Y9.979 E0.04568
G1 F539.3 X16.98 Y9.5 E0.06296
G1 F572.6 X16.924 Y9.517 E0.00367
G1 F600 X16.462 Y9.344 E0.02953
G0 F3600 X15.915 Y9.072
G0 X16.33 Y8.214
G0 X16.058 Y7.292
G0 X17.807 Y6.081
G0 X17.581 Y6.375
G1 F720 X17.776 Y6.441 E0.01027
G1 X18.147 Y6.725 E0.02331
G1 X18.552 Y7.134 E0.02872
G1 X18.919 Y7.678 E0.03274
G1 X19.163 Y8.3 E0.03333
G1 X19.534 Y7.454 E0.04609
G1 X20.195 Y5.405 E0.10741
G1 X20.63 Y3.353 E0.10465
G1 X20.86 Y1.186 E0.10872
G1 X20.871 Y-.931 E0.10562
G1 X20.65 Y-3.129 E0.11021
G1 X20.23 Y-5.185 E0.10469
G1 X19.565 Y-7.289 E0.11009
G1 X18.714 Y-9.248 E0.10656
G1 X17.648 Y-11.138 E0.10826
G1 X16.404 Y-12.896 E0.10744
G1 X15.004 Y-14.498 E0.10614
G1 X13.469 Y-15.932 E0.1048
G1 X11.747 Y-17.234 E0.1077
G1 X9.864 Y-18.37 E0.10972
G1 X7.908 Y-19.292 E0.10788
G1 X5.967 Y-19.972 E0.10261
G1 X4.904 Y-20.239 E0.05468
G1 X3.87 Y-20.485 E0.05303
G1 X1.592 Y-20.788 E0.11465
G1 X1.144 Y-20.796 E0.02235
G1 X0.531 Y-20.878 E0.03086
G1 X0.789 Y-20.212 E0.03563
G1 X0.804 Y-20.063 E0.00747
G1 X0.708 Y-19.749 E0.01638
G1 X0.296 Y-19.31 E0.03004
G1 F587.8 X0.211 Y-18.998 E0.01976
G1 F498.3 X0.053 Y-18.89 E0.0138
G1 F499.1 X-.249 Y-18.505 E0.03521
G1 F498.3 X-.308 Y-18.345 E0.01229
G1 X-.235 Y-18.188 E0.01248
G1 X-.127 Y-18.093 E0.01037
G1 X0.119 Y-18.018 E0.01854
G1 F499.1 X0.463 Y-18.468 E0.04076
G1 F498.3 X0.561 Y-18.542 E0.00885
G1 F587.8 X0.921 Y-18.552 E0.02201
G1 F720 X1.036 Y-18.513 E0.00606
G1 X1.672 Y-18.937 E0.03813
G1 X1.999 Y-18.975 E0.01642
G1 X2.309 Y-18.853 E0.01662
G1 X2.664 Y-18.496 E0.02512
G1 X3.031 Y-18.241 E0.0223
G1 X3.216 Y-18.035 E0.01381
G1 X3.287 Y-17.798 E0.01234
G1 X3.279 Y-17.614 E0.00919
G1 X2.956 Y-16.749 E0.04607
G1 X2.624 Y-16.256 E0.02965
G1 X2.162 Y-15.79 E0.03274
G1 X1.652 Y-15.422 E0.03138
G1 X1.08 Y-15.178 E0.03103
G1 X0.421 Y-15.026 E0.03374
G1 X0.00 Y-14.996 E0.02106
G1 X-.783 Y-15.079 E0.03928
G1 X-1.511 Y-15.358 E0.0389
G1 X-1.886 Y-15.592 E0.02205
G1 X-2.353 Y-15.966 E0.02985
G1 X-2.775 Y-16.48 E0.03318
G1 X-3.095 Y-17.058 E0.03296
G1 X-3.281 Y-17.714 E0.03402
G1 X-3.344 Y-18.383 E0.03352
G1 X-3.319 Y-18.801 E0.02089
G1 X-3.08 Y-19.697 E0.04626
G1 X-2.699 Y-20.365 E0.03837
G1 X-2.378 Y-20.695 E0.02297
G1 X-2.583 Y-20.679 E0.01026
G1 X-3.878 Y-20.458 E0.06554
G1 X-4.824 Y-20.279 E0.04803
G1 X-6.767 Y-19.716 E0.10092
G1 X-8.783 Y-18.903 E0.10845
G1 X-10.735 Y-17.872 E0.11013
G1 X-12.472 Y-16.702 E0.10448
G1 X-14.113 Y-15.345 E0.10624
G1 X-15.658 Y-13.773 E0.10996
G1 X-16.963 Y-12.134 E0.10452
G1 X-18.134 Y-10.306 E0.10831
G1 X-19.126 Y-8.337 E0.11
G1 X-19.872 Y-6.371 E0.10491
G1 X-20.424 Y-4.306 E0.10664
G1 X-20.762 Y-2.192 E0.10681
G1 X-20.879 Y-0.018 E0.10862
G1 X-20.774 Y2.136 E0.10759
G1 X-20.451 Y4.271 E0.10773
G1 X-20.03 Y5.887 E0.08331
G1 X-19.799 Y6.668 E0.04063
G1 F712.9 X-19.173 Y8.289 E0.08756
G1 X-18.905 Y7.697 E0.03274
G1 F720 X-18.594 Y7.201 E0.02921
G1 X-18.065 Y6.659 E0.03779
G1 X-17.557 Y6.3 E0.03103
G1 X-16.98 Y6.057 E0.03124
G1 X-16.274 Y5.905 E0.03603
G1 X-15.475 Y5.893 E0.03987
G1 X-14.642 Y6.136 E0.04329
G1 X-14.091 Y6.428 E0.03111
G1 X-13.622 Y6.801 E0.0299
G1 X-13.262 Y7.2 E0.02681
G1 X-12.909 Y7.757 E0.0329
G1 X-12.627 Y8.656 E0.04701
G1 X-12.556 Y9.491 E0.04181
G1 X-12.751 Y10.32 E0.04249
G1 X-12.999 Y10.899 E0.03142
G1 X-13.37 Y11.417 E0.03179
G1 X-13.859 Y11.882 E0.03367
G1 X-14.187 Y12.111 E0.01996
G1 X-14.713 Y12.368 E0.02921
G1 X-15.241 Y12.524 E0.02747
G1 X-15.869 Y12.6 E0.03156
G1 X-16.454 Y12.556 E0.02927
G1 X-16.749 Y12.48 E0.0152
G1 X-15.609 Y13.915 E0.09143
G1 X-14.247 Y15.315 E0.09745
G1 X-12.578 Y16.716 E0.10871
G1 X-10.793 Y17.921 E0.10745
G1 X-8.88 Y18.944 E0.10823
G1 X-6.904 Y19.753 E0.10653
G1 X-4.879 Y20.351 E0.10534
G1 X-2.808 Y20.74 E0.10513
G1 X-.637 Y20.915 E0.10866
G1 X1.556 Y20.872 E0.10943
G1 X3.71 Y20.6 E0.10832
G1 X5.769 Y20.122 E0.10546
G1 X7.826 Y19.411 E0.10858
G1 X9.782 Y18.497 E0.10771
G1 X11.638 Y17.392 E0.10776
G1 X13.34 Y16.121 E0.10598
G1 X14.857 Y14.733 E0.10258
G1 X16.299 Y13.112 E0.10824
G1 X16.756 Y12.484 E0.03875
G1 X16.418 Y12.563 E0.01732
G1 X15.837 Y12.604 E0.02906
G1 X15.153 Y12.506 E0.03447
G1 X14.484 Y12.266 E0.03546
G1 X13.955 Y11.946 E0.03084
G1 X13.504 Y11.546 E0.03008
G1 X13.083 Y11.01 E0.034
G1 X12.829 Y10.498 E0.02851
G1 X12.64 Y9.856 E0.03339
G1 X12.58 Y9.198 E0.03296
G1 X12.675 Y8.496 E0.03534
G1 X12.86 Y7.893 E0.03147
G1 X13.159 Y7.362 E0.0304
G1 X13.577 Y6.865 E0.0324
G1 X14.038 Y6.477 E0.03006
G1 X14.58 Y6.17 E0.03108
G1 X14.995 Y6.027 E0.0219
G1 X15.299 Y6.026 E0.01517
G1 X15.559 Y6.155 E0.01448
G1 X16.11 Y6.924 E0.0472
G1 X16.201 Y7.155 E0.01239
G1 X16.363 Y6.968 E0.01234
G1 X16.702 Y6.799 E0.0189
G1 X16.867 Y6.643 E0.01133
G1 X17.275 Y6.406 E0.02354
G1 X17.581 Y6.375 E0.01534
G0 F3600 X17.807 Y6.081
G0 X15.841 Y6.031
G0 X15.269 Y6.434
;TYPE:WALL-OUTER
G1 F720 X15.784 Y7.156 E0.04425
G1 F702.4 X15.833 Y7.446 E0.01504
G1 F668.2 X15.959 Y7.638 E0.01235
G1 F685.7 X15.519 Y8.232 E0.03872
G1 F720 X15.303 Y8.412 E0.01403
G1 X15.385 Y8.543 E0.00771
G1 X15.382 Y8.633 E0.00449
G1 X15.174 Y9.028 E0.02227
G1 X15.155 Y9.376 E0.01739
G1 X15.295 Y9.707 E0.01793
G1 X15.567 Y9.944 E0.018
G1 X15.99 Y10.094 E0.02239
G1 X16.038 Y10.29 E0.01007
G1 X16.239 Y10.174 E0.01158
G1 X16.362 Y10.192 E0.0062
G1 X16.478 Y10.307 E0.00815
G1 X17.078 Y10.723 E0.03643
G1 X17.15 Y10.812 E0.00571
G1 X17.147 Y10.97 E0.00788
G1 X17.072 Y11.074 E0.0064
G1 F699 X17.134 Y11.292 E0.01165
G1 F657.5 X17.1 Y11.853 E0.0307
G1 F645.7 X17.061 Y11.951 E0.00587
G1 F679.2 X16.93 Y12.025 E0.00796
G1 F714.6 X16.39 Y12.164 E0.02803
G1 F720 X15.832 Y12.199 E0.02789
G1 X15.24 Y12.116 E0.02982
G1 X14.664 Y11.908 E0.03055
G1 X14.208 Y11.632 E0.02659
G1 X13.781 Y11.257 E0.02835
G1 X13.427 Y10.806 E0.0286
G1 X13.204 Y10.358 E0.02497
G1 X13.035 Y9.779 E0.03009
G1 X12.985 Y9.181 E0.02994
G1 X13.068 Y8.572 E0.03066
G1 X13.241 Y8.029 E0.02843
G1 X13.495 Y7.579 E0.02578
G1 X13.861 Y7.147 E0.02825
G1 X14.26 Y6.809 E0.02609
G1 X14.758 Y6.528 E0.02853
G1 X15.109 Y6.411 E0.01846
G1 X15.269 Y6.434 E0.00806
G0 F3600 X15.385 Y6.596
G0 X15.956 Y6.193
G0 X17.52 Y6.449
G0 X18.432 Y7.244
G0 X18.89 Y8.035
G0 X19.102 Y8.853
G0 X18.856 Y9.006
G1 F731 X18.774 Y9.097 E0.00602
G1 F723.6 X18.23 Y9.321 E0.0292
G1 F721.8 X18.142 Y9.237 E0.00605
G1 F720 X18.011 Y9.419 E0.01119
G1 X17.847 Y9.466 E0.00851
G1 X17.028 Y9.011 E0.04674
G1 X16.888 Y9.068 E0.00754
G1 X16.741 Y9.02 E0.00771
G1 X16.447 Y8.592 E0.02591
G1 X16.455 Y8.437 E0.00774
G1 X16.58 Y8.317 E0.00864
G1 F653.1 X16.43 Y7.571 E0.04185
G1 X16.593 Y7.296 E0.01758
G1 F720 X16.971 Y7.118 E0.02084
G1 X17.037 Y7.015 E0.0061
G1 X17.417 Y6.78 E0.02229
G1 X17.584 Y6.792 E0.00835
G1 X17.863 Y7.007 E0.01757
G1 X18.231 Y7.379 E0.02611
G1 X18.551 Y7.848 E0.02833
G1 X18.752 Y8.336 E0.02633
G1 F723.6 X18.87 Y8.881 E0.02768
G1 F731 X18.856 Y9.006 E0.00618
G0 F3600 X18.774 Y9.097
G0 X18.702 Y9.126
G0 X18.819 Y9.409
G0 X18.034 Y9.83
G0 X15.791 Y9.148
G0 X16.292 Y7.552
G0 X15.316 Y6.099
G0 X5.207 Y7.645
G0 X5.069 Y6.956
G1 F720 X4.532 Y6.889 E0.027
G1 X4.031 Y6.685 E0.02699
G1 X3.647 Y6.359 E0.02513
G1 X3.271 Y5.863 E0.03105
G1 X3.118 Y5.276 E0.03026
G1 X3.129 Y4.711 E0.02819
G1 X3.257 Y4.27 E0.02291
G1 X3.56 Y3.809 E0.02752
G1 X3.937 Y3.46 E0.02563
G1 X4.374 Y3.243 E0.02434
G1 X4.759 Y3.152 E0.01974
G1 X5.122 Y3.133 E0.01813
